!!!SOCIAL_FUNCTION:	unclassified songs
!!!PDT:	1909
!!!OTL: No_148_My_Music_Reaches_to_the_Sky.krn
!!!REG: Great_Lakes
!!!LANG: Non-Tone
!!!LING_GROUP: Algonquin
**kern	**kern
*staff2	*staff1
*clefF4	*clefG2
*k[]	*k[]
*M2/4	*M2/4
8GG/	8g/
=1	=1
12GG^/	8g/L
12r	.
.	8g/J
12GG/	.
12GG^/	8.g/L
12r	.
12GG/	.
.	16a/Jk
=2	=2
2r	4..g/
.	16e/
=3	=3
2r	4g/
.	4e/
=4	=4
2r	8e/L
.	8d/J
.	8c/L
.	8c/J
=5	=5
2r	8.e/L
.	16d/Jk
.	4c/
=6	=6
2r	4.c/
.	8c/
=7||	=7||
*M3/4	*M3/4
2.r	2c/
.	8r
.	8g/
=8	=8
2.r	8g/L
.	8g/J
.	8e/L
.	[8e/J
.	8e/L]
.	16e/L
.	16d/JJ
=9	=9
2.r	8c/L
.	8c/J
.	8.A/L
.	16G/Jk
.	12A/L
.	12A/
.	12A/J
=10	=10
2.r	2A/
.	8G/L
.	8G/J
*	*clefF4
=11	=11
2.r	2E\
.	8A\L
.	8A\J
=12||	=12||
*M2/4	*M2/4
2r	8A\L
.	8G\J
.	[4G\
=13	=13
2r	4G\]
.	4E\
=14	=14
2r	8G\L
.	8E\J
.	8.E\L
.	16D\Jk
=15	=15
2r	8C/L
.	8C/J
.	4C/
=16	=16
2r	2C/
==	==
*-	*-
